Costumes/starfish-b_.svg

<?xml version="1.0" encoding="UTF-8" standalone="no"?>
<svg
   version="1.1"
   width="107.15179"
   height="116.77998"
   id="svg23"
   sodipodi:docname="starfish-b_.svg"
   xmlns:inkscape="http://www.inkscape.org/namespaces/inkscape"
   xmlns:sodipodi="http://sodipodi.sourceforge.net/DTD/sodipodi-0.dtd"
   xmlns="http://www.w3.org/2000/svg"
   xmlns:svg="http://www.w3.org/2000/svg">
  <defs
     id="defs27" />
  <sodipodi:namedview
     id="namedview25"
     pagecolor="#ffffff"
     bordercolor="#000000"
     borderopacity="0.25"
     inkscape:showpageshadow="2"
     inkscape:pageopacity="0.0"
     inkscape:pagecheckerboard="0"
     inkscape:deskcolor="#d1d1d1" />
  <!-- Exported by Scratch - http://scratch.mit.edu/ -->
  <g
     id="ID0.41293715313076973"
     transform="matrix(0.90249997,0,0,0.90249997,-15.338873,-8.2169294)">
    <g
       id="Body">
      <path
         id="Fill"
         fill="#ff13fa"
         d="m 51.827,130.936 c 11.357,14.771 33.211,-27.672 36.819,-27.672 3.608,0 21.549,20.247 34.291,20.467 2.828,0.05 4.492,-1.353 5.903,-3.651 7.688,-12.535 -16.464,-30.894 -17.489,-38.381 -0.433,-3.147 8.197,-8.049 11.354,-11.764 3.138,-3.695 10.912,-11.169 8.542,-16.456 -1.662,-3.708 -5.241,-3.268 -7.933,-3.075 -5.412,0.39 -13.351,3.62 -18.705,4.583 -5.267,1.86 -4.139,-5.946 -5.484,-10.985 C 97.78,38.963 93.674,32.681 90.874,29.626 86.323,24.659 75.65,16.163 68.78,14.206 c -3.586,-1.02 -9.842,0.637 -11.582,4.148 -3.892,7.856 7.383,20.364 8.13,29.483 0.216,2.62 0.406,10.954 -1.07,13.179 -1.917,2.891 -40.185,1.603 -40.888,13.29 -0.318,5.284 4.531,8.688 8.822,10.629 7.161,3.246 13.533,2.722 20.94,4.226 1.988,0.401 4.864,1.489 5.139,3.771 0.827,6.853 -14.654,27.321 -6.444,38.004 z" />
      <path
         id="Outline_2_"
         d="m 115.393,81.754 c 5.703,-6.066 21.658,-18.687 19.66,-28.109 -1.016,-4.782 -4.957,-8.149 -13.425,-7.013 -3.683,0.494 -11.344,3.481 -16.002,5.127 -0.537,0.028 -2.289,0.03 -2.501,-1.134 C 102.875,49.25 103.139,37.833 88.187,24.162 80.572,17.199 66.69,2.571 55.892,12.399 50.176,17.6 52.504,25.062 54.28,28.537 c 6.78,13.254 9.081,22.302 7.292,29.339 -0.029,0.111 -38.354,1.005 -44.112,14.245 -1.656,3.809 1.412,9.39 4.602,11.611 12.68,8.83 29.709,8.066 32.603,9.586 0.026,0.014 0.032,0.055 0.05,0.08 0.078,0.106 0.086,0.314 0.027,0.623 -0.933,4.884 -17.588,33.562 -4.374,42.722 3.294,2.284 9.448,2.269 12.886,0.379 10.479,-5.763 22.479,-28.808 26.311,-28.808 3.832,0 23.957,20.946 35.595,20.285 3.303,-0.189 7.313,-4.016 8.819,-6.715 8.026,-14.375 -13.982,-28.318 -18.586,-40.13 z M 58.271,92.932 C 57.996,90.651 55.12,89.563 53.132,89.161 45.725,87.657 39.353,88.182 32.192,84.935 27.901,82.994 23.052,79.588 23.37,74.306 24.073,62.619 62.341,63.907 64.258,61.016 65.734,58.791 65.544,50.457 65.328,47.837 64.581,38.718 53.306,26.21 57.198,18.354 c 1.74,-3.511 7.996,-5.168 11.582,-4.148 6.873,1.957 17.543,10.453 22.094,15.419 2.8,3.055 6.905,9.337 8.251,14.376 1.346,5.039 0.219,12.845 5.484,10.985 5.354,-0.963 13.293,-4.193 18.705,-4.583 2.69,-0.193 6.271,-0.633 7.933,3.075 2.37,5.287 -5.404,12.761 -8.542,16.456 -3.155,3.715 -11.785,8.617 -11.354,11.764 1.025,7.487 25.178,25.846 17.489,38.381 -1.411,2.3 -3.075,3.7 -5.903,3.651 -12.742,-0.22 -30.683,-20.467 -34.291,-20.467 -3.608,0 -25.462,42.442 -36.819,27.672 -8.21,-10.682 7.271,-31.15 6.444,-38.003 z" />
    </g>
    <g
       id="Mouth">
      <path
         id="Inside"
         fill="#9913fa"
         d="m 78.417,61.833 c -0.015,0.011 -0.03,0.022 -0.047,0.033 -1.935,1.384 -5.616,3.256 -5.12,13.905 0.071,1.519 -0.007,3.92 4.102,3.799 1.67,-0.049 4.041,-0.521 7.389,-1.633 -3.439,-2.512 -1.725,-13.902 4.396,-18.905 -5.367,-0.067 -8.265,1.03 -10.72,2.801 z" />
      <g
         id="Bottom_Teeth">
        <path
           id="ID0.8925802609883249"
           fill="#ffffff"
           d="m 76.725,78.793 c 3.604,-2.908 6.901,-5.441 10.785,-6.981 l 0.426,-0.168 0.404,0.211 c 1.352,0.704 2.607,2.069 3.201,3.479 l 0.391,0.928 -0.931,0.385 c -6.181,2.555 -10.636,3.838 -13.62,3.926 l -2.967,0.086 z" />
        <path
           id="ID0.6443587294779718"
           d="m 87.878,72.741 c 1.147,0.598 2.235,1.78 2.741,2.979 -6.659,2.752 -10.753,3.776 -13.268,3.85 3.347,-2.7 6.704,-5.312 10.527,-6.829 m 0.113,-2.196 -0.851,0.337 c -4.015,1.592 -7.377,4.172 -11.045,7.134 l -4.621,3.729 5.934,-0.174 c 3.106,-0.09 7.678,-1.397 13.973,-4 l 1.861,-0.77 -0.782,-1.855 c -0.688,-1.636 -2.091,-3.16 -3.659,-3.978 l -0.81,-0.423 v 0 l -0.113,2.196 z" />
      </g>
      <g
         id="Top_Teeth">
        <path
           id="ID0.1476794658228755"
           fill="#ffffff"
           d="M 93.38,65.024 C 91.479,64.682 89.338,64.439 87.07,64.181 84.009,63.833 80.847,63.473 78.142,62.84 l -2.203,-0.516 1.863,-1.282 c 2.979,-2.148 6.117,-3.016 10.862,-3.016 0.685,0 1.409,0.019 2.179,0.059 1.047,0.054 2.165,0.225 3.52,0.539 l 0.767,0.177 0.009,0.786 c 0.019,1.666 -0.224,3.488 -0.63,4.758 l -0.267,0.834 z" />
        <path
           id="ID0.7112272931262851"
           d="m 88.666,59.026 c 0.668,0 1.376,0.019 2.127,0.058 1.111,0.057 2.245,0.259 3.346,0.514 0.016,1.465 -0.189,3.218 -0.582,4.442 -4.559,-0.819 -10.588,-1.097 -15.187,-2.174 0.016,-0.011 0.032,-0.022 0.047,-0.033 2.385,-1.72 5.176,-2.807 10.249,-2.807 m 0,-2 c -4.909,0 -8.324,0.953 -11.419,3.186 l -3.731,2.564 4.398,1.038 c 2.762,0.646 5.955,1.01 9.044,1.361 2.25,0.256 4.375,0.498 6.245,0.834 l 1.725,0.31 0.534,-1.669 c 0.437,-1.364 0.695,-3.308 0.677,-5.073 L 96.122,58.005 94.59,57.651 C 93.177,57.323 92.003,57.145 90.897,57.088 90.121,57.046 89.37,57.026 88.666,57.026 v 0 2 z" />
      </g>
      <path
         id="Mouth_1_"
         d="m 101.432,57.083 c -3.015,-7.5 -6.854,-10.157 -6.182,-9.004 0,0 4.084,6.587 3.667,9.837 0,0 -5.356,-2.293 -14.138,-0.688 -8.78,1.605 -15.079,6.067 -15.054,18.543 0.025,12.478 13.158,6.27 18.716,3.498 5.558,-2.771 6.309,-2.914 6.809,0.532 0.5,3.447 0.834,6.031 1.834,2.864 1,-3.167 4.176,-11.665 -1.912,-8.916 -1.643,0.742 -3.148,1.39 -4.553,1.971 -2.239,0.926 -4.184,1.651 -5.881,2.217 -3.348,1.112 -5.719,1.584 -7.387,1.633 -4.108,0.121 -4.032,-2.28 -4.103,-3.799 -0.496,-10.649 3.187,-12.521 5.12,-13.905 0.016,-0.011 0.031,-0.022 0.047,-0.033 2.455,-1.771 5.354,-2.868 10.719,-2.801 0.53,0.007 1.076,0.021 1.657,0.051 1.112,0.057 2.245,0.259 3.347,0.514 5.287,1.225 9.788,3.695 7.294,-2.514 z" />
    </g>
    <g
       id="L_Eye">
      <path
         id="White_1_"
         fill="#ffffff"
         d="m 72.886,43.661 c -1.469,2.558 -1.171,6.826 2.359,8.183 1.007,0.387 2.892,-0.053 3.757,-0.725 2.417,-1.871 1.924,-7.156 0.146,-8.667 -1.714,-1.455 -5.101,-0.813 -6.262,1.209 z" />
      <path
         id="Pupil_1_"
         d="m 79.025,44.301 c 0.688,0 1.311,0.275 1.762,0.718 0.451,0.444 0.73,1.057 0.73,1.733 0,0.676 -0.279,1.289 -0.73,1.733 -0.451,0.443 -1.074,0.718 -1.762,0.718 -0.688,0 -1.311,-0.275 -1.762,-0.718 -0.451,-0.444 -0.73,-1.057 -0.73,-1.733 0,-0.676 0.279,-1.289 0.73,-1.733 0.451,-0.443 1.074,-0.718 1.762,-0.718 z" />
      <path
         id="Outline_1_"
         d="m 79.391,39.532 c -9.528,-3.106 -12.49,9.973 -7.37,13.689 1.968,1.429 5.374,1.726 7.846,0.532 4.994,-2.415 4.173,-12.705 -0.476,-14.221 z m -0.389,11.587 c -0.865,0.672 -2.75,1.112 -3.757,0.725 -3.53,-1.357 -3.828,-5.625 -2.359,-8.183 1.161,-2.022 4.548,-2.664 6.263,-1.209 1.777,1.511 2.27,6.796 -0.147,8.667 z" />
    </g>
    <g
       id="R_Eye">
      <path
         id="White"
         fill="#ffffff"
         d="m 100.159,34.946 c -2.593,-2.198 -7.708,-1.229 -9.461,1.827 -2.22,3.865 -1.771,10.311 3.562,12.361 1.525,0.586 4.366,-0.079 5.678,-1.094 3.654,-2.826 2.908,-10.811 0.221,-13.094 z" />
      <path
         id="Pupil"
         d="m 104.5,42.058 c 0.033,2.187 -1.789,3.995 -4.066,4.04 -2.279,0.045 -4.15,-1.691 -4.184,-3.877 -0.032,-2.187 1.789,-3.995 4.066,-4.04 2.28,-0.045 4.152,1.691 4.184,3.877 z" />
      <path
         id="Outline"
         d="M 100.064,31.638 C 87.111,27.414 83.083,45.196 90.043,50.249 c 2.675,1.944 7.311,2.349 10.667,0.725 6.792,-3.284 5.677,-17.275 -0.646,-19.336 z M 99.938,48.04 c -1.312,1.015 -4.151,1.68 -5.678,1.094 -5.333,-2.05 -5.781,-8.496 -3.562,-12.361 1.753,-3.056 6.868,-4.025 9.461,-1.827 2.687,2.283 3.433,10.268 -0.221,13.094 z" />
    </g>
  </g>
</svg>

<svg version="1.1" width="136" height="139" xmlns="http://www.w3.org/2000/svg" xmlns:xlink="http://www.w3.org/1999/xlink">
  <!-- Exported by Scratch - http://scratch.mit.edu/ -->
  <g id="ID0.41293715313076973" transform="matrix(0.9024999737739563, 0, 0, 0.9024999737739563, -14.55, -7.65)">
    <g id="Body">
      <path id="Fill" fill="#FF13FA" d="M 51.827 130.936 C 63.184 145.707 85.038 103.264 88.646 103.264 C 92.254 103.264 110.195 123.511 122.937 123.731 C 125.765 123.781 127.429 122.378 128.840 120.080 C 136.528 107.545 112.376 89.186 111.351 81.699 C 110.918 78.552 119.548 73.650 122.705 69.935 C 125.843 66.240 133.617 58.766 131.247 53.479 C 129.585 49.771 126.006 50.211 123.314 50.404 C 117.902 50.794 109.963 54.024 104.609 54.987 C 99.342 56.847 100.470 49.041 99.125 44.002 C 97.780 38.963 93.674 32.681 90.874 29.626 C 86.323 24.659 75.650 16.163 68.780 14.206 C 65.194 13.186 58.938 14.843 57.198 18.354 C 53.306 26.210 64.581 38.718 65.328 47.837 C 65.544 50.457 65.734 58.791 64.258 61.016 C 62.341 63.907 24.073 62.619 23.370 74.306 C 23.052 79.590 27.901 82.994 32.192 84.935 C 39.353 88.181 45.725 87.657 53.132 89.161 C 55.120 89.562 57.996 90.650 58.271 92.932 C 59.098 99.785 43.617 120.253 51.827 130.936 L 51.827 130.936 Z "/>
      <path id="Outline_2_" d="M 115.393 81.754 C 121.096 75.688 137.051 63.067 135.053 53.645 C 134.037 48.863 130.096 45.496 121.628 46.632 C 117.945 47.126 110.284 50.113 105.626 51.759 C 105.089 51.787 103.337 51.789 103.125 50.625 C 102.875 49.250 103.139 37.833 88.187 24.162 C 80.572 17.199 66.690 2.571 55.892 12.399 C 50.176 17.600 52.504 25.062 54.280 28.537 C 61.060 41.791 63.361 50.839 61.572 57.876 C 61.543 57.987 23.218 58.881 17.460 72.121 C 15.804 75.930 18.872 81.511 22.062 83.732 C 34.742 92.562 51.771 91.798 54.665 93.318 C 54.691 93.332 54.697 93.373 54.715 93.398 C 54.793 93.504 54.801 93.712 54.742 94.021 C 53.809 98.905 37.154 127.583 50.368 136.743 C 53.662 139.027 59.816 139.012 63.254 137.122 C 73.733 131.359 85.733 108.314 89.565 108.314 C 93.397 108.314 113.522 129.260 125.160 128.599 C 128.463 128.410 132.473 124.583 133.979 121.884 C 142.005 107.509 119.997 93.566 115.393 81.754 L 115.393 81.754 Z M 58.271 92.932 C 57.996 90.651 55.120 89.563 53.132 89.161 C 45.725 87.657 39.353 88.182 32.192 84.935 C 27.901 82.994 23.052 79.588 23.370 74.306 C 24.073 62.619 62.341 63.907 64.258 61.016 C 65.734 58.791 65.544 50.457 65.328 47.837 C 64.581 38.718 53.306 26.210 57.198 18.354 C 58.938 14.843 65.194 13.186 68.780 14.206 C 75.653 16.163 86.323 24.659 90.874 29.625 C 93.674 32.680 97.779 38.962 99.125 44.001 C 100.471 49.040 99.344 56.846 104.609 54.986 C 109.963 54.023 117.902 50.793 123.314 50.403 C 126.004 50.210 129.585 49.770 131.247 53.478 C 133.617 58.765 125.843 66.239 122.705 69.934 C 119.550 73.649 110.920 78.551 111.351 81.698 C 112.376 89.185 136.529 107.544 128.840 120.079 C 127.429 122.379 125.765 123.779 122.937 123.730 C 110.195 123.510 92.254 103.263 88.646 103.263 C 85.038 103.263 63.184 145.705 51.827 130.935 C 43.617 120.253 59.098 99.785 58.271 92.932 L 58.271 92.932 Z "/>
    </g>
    <g id="Mouth">
      <path id="Inside" fill="#9913FA" d="M 78.417 61.833 C 78.402 61.844 78.387 61.855 78.370 61.866 C 76.435 63.250 72.754 65.122 73.250 75.771 C 73.321 77.290 73.243 79.691 77.352 79.570 C 79.022 79.521 81.393 79.049 84.741 77.937 C 81.302 75.425 83.016 64.035 89.137 59.032 C 83.770 58.965 80.872 60.062 78.417 61.833 L 78.417 61.833 Z "/>
      <g id="Bottom_Teeth">
        <path id="ID0.8925802609883249" fill="#FFFFFF" d="M 76.725 78.793 C 80.329 75.885 83.626 73.352 87.510 71.812 L 87.936 71.644 L 88.340 71.855 C 89.692 72.559 90.947 73.924 91.541 75.334 L 91.932 76.262 L 91.001 76.647 C 84.820 79.202 80.365 80.485 77.381 80.573 L 74.414 80.659 L 76.725 78.793 L 76.725 78.793 Z "/>
        <path id="ID0.6443587294779718" d="M 87.878 72.741 C 89.025 73.339 90.113 74.521 90.619 75.720 C 83.960 78.472 79.866 79.496 77.351 79.570 C 80.698 76.870 84.055 74.258 87.878 72.741 M 87.991 70.545 L 87.140 70.882 C 83.125 72.474 79.763 75.054 76.095 78.016 L 71.474 81.745 L 77.408 81.571 C 80.514 81.481 85.086 80.174 91.381 77.571 L 93.242 76.801 L 92.460 74.946 C 91.772 73.310 90.369 71.786 88.801 70.968 L 87.991 70.545 L 87.991 70.545 L 87.878 72.741 Z "/>
      </g>
      <g id="Top_Teeth">
        <path id="ID0.1476794658228755" fill="#FFFFFF" d="M 93.380 65.024 C 91.479 64.682 89.338 64.439 87.070 64.181 C 84.009 63.833 80.847 63.473 78.142 62.840 L 75.939 62.324 L 77.802 61.042 C 80.781 58.894 83.919 58.026 88.664 58.026 C 89.349 58.026 90.073 58.045 90.843 58.085 C 91.890 58.139 93.008 58.310 94.363 58.624 L 95.130 58.801 L 95.139 59.587 C 95.158 61.253 94.915 63.075 94.509 64.345 L 94.242 65.179 L 93.380 65.024 L 93.380 65.024 Z "/>
        <path id="ID0.7112272931262851" d="M 88.666 59.026 C 89.334 59.026 90.042 59.045 90.793 59.084 C 91.904 59.141 93.038 59.343 94.139 59.598 C 94.155 61.063 93.950 62.816 93.557 64.040 C 88.998 63.221 82.969 62.943 78.370 61.866 C 78.386 61.855 78.402 61.844 78.417 61.833 C 80.802 60.113 83.593 59.026 88.666 59.026 M 88.666 57.026 C 83.757 57.026 80.342 57.979 77.247 60.212 L 73.516 62.776 L 77.914 63.814 C 80.676 64.460 83.869 64.824 86.958 65.175 C 89.208 65.431 91.333 65.673 93.203 66.009 L 94.928 66.319 L 95.462 64.650 C 95.899 63.286 96.157 61.342 96.139 59.577 L 96.122 58.005 L 94.590 57.651 C 93.177 57.323 92.003 57.145 90.897 57.088 C 90.121 57.046 89.370 57.026 88.666 57.026 L 88.666 57.026 L 88.666 59.026 Z "/>
      </g>
      <path id="Mouth_1_" d="M 101.432 57.083 C 98.417 49.583 94.578 46.926 95.250 48.079 C 95.250 48.079 99.334 54.666 98.917 57.916 C 98.917 57.916 93.561 55.623 84.779 57.228 C 75.999 58.833 69.700 63.295 69.725 75.771 C 69.750 88.249 82.883 82.041 88.441 79.269 C 93.999 76.498 94.750 76.355 95.250 79.801 C 95.750 83.248 96.084 85.832 97.084 82.665 C 98.084 79.498 101.260 71 95.172 73.749 C 93.529 74.491 92.024 75.139 90.619 75.720 C 88.380 76.646 86.435 77.371 84.738 77.937 C 81.390 79.049 79.019 79.521 77.351 79.570 C 73.243 79.691 73.319 77.290 73.248 75.771 C 72.752 65.122 76.435 63.250 78.368 61.866 C 78.384 61.855 78.399 61.844 78.415 61.833 C 80.870 60.062 83.769 58.965 89.134 59.032 C 89.664 59.039 90.210 59.053 90.791 59.083 C 91.903 59.140 93.036 59.342 94.138 59.597 C 99.425 60.822 103.926 63.292 101.432 57.083 L 101.432 57.083 Z "/>
    </g>
    <g id="L_Eye">
      <path id="White_1_" fill="#FFFFFF" d="M 72.886 43.661 C 71.417 46.219 71.715 50.487 75.245 51.844 C 76.252 52.231 78.137 51.791 79.002 51.119 C 81.419 49.248 80.926 43.963 79.148 42.452 C 77.434 40.997 74.047 41.639 72.886 43.661 L 72.886 43.661 Z "/>
      <path id="Pupil_1_" d="M 79.025 44.301 C 79.713 44.301 80.336 44.576 80.787 45.019 C 81.238 45.463 81.517 46.076 81.517 46.752 C 81.517 47.428 81.238 48.041 80.787 48.485 C 80.336 48.928 79.713 49.203 79.025 49.203 C 78.337 49.203 77.714 48.928 77.263 48.485 C 76.812 48.041 76.533 47.428 76.533 46.752 C 76.533 46.076 76.812 45.463 77.263 45.019 C 77.714 44.576 78.337 44.301 79.025 44.301 Z "/>
      <path id="Outline_1_" d="M 79.391 39.532 C 69.863 36.426 66.901 49.505 72.021 53.221 C 73.989 54.650 77.395 54.947 79.867 53.753 C 84.861 51.338 84.040 41.048 79.391 39.532 L 79.391 39.532 Z M 79.002 51.119 C 78.137 51.791 76.252 52.231 75.245 51.844 C 71.715 50.487 71.417 46.219 72.886 43.661 C 74.047 41.639 77.434 40.997 79.149 42.452 C 80.926 43.963 81.419 49.248 79.002 51.119 L 79.002 51.119 Z "/>
    </g>
    <g id="R_Eye">
      <path id="White" fill="#FFFFFF" d="M 100.159 34.946 C 97.566 32.748 92.451 33.717 90.698 36.773 C 88.478 40.638 88.927 47.084 94.260 49.134 C 95.785 49.720 98.626 49.055 99.938 48.040 C 103.592 45.214 102.846 37.229 100.159 34.946 L 100.159 34.946 Z "/>
      <path id="Pupil" d="M 104.500 42.058 C 104.533 44.245 102.711 46.053 100.434 46.098 C 98.155 46.143 96.284 44.407 96.250 42.221 C 96.218 40.034 98.039 38.226 100.316 38.181 C 102.596 38.136 104.468 39.872 104.500 42.058 L 104.500 42.058 Z "/>
      <path id="Outline" d="M 100.064 31.638 C 87.111 27.414 83.083 45.196 90.043 50.249 C 92.718 52.193 97.354 52.598 100.710 50.974 C 107.502 47.690 106.387 33.699 100.064 31.638 L 100.064 31.638 Z M 99.938 48.040 C 98.626 49.055 95.787 49.720 94.260 49.134 C 88.927 47.084 88.479 40.638 90.698 36.773 C 92.451 33.717 97.566 32.748 100.159 34.946 C 102.846 37.229 103.592 45.214 99.938 48.040 L 99.938 48.040 Z "/>
    </g>
  </g>
</svg>
